X: 10551
T: THE DEIL AMONG THE TAILORS -- Reel
C: Arranged by W. B. Laybourn
R: reel
B: K\"ohler's Violin Repository, v.1, 1885 p.55 #1
F: http://www.archive.org/details/klersviolinrepos01edin
Z: 2011 John Chambers <jc:trillian.mit.edu>
M: C|
L: 1/8
K: A
[|\
va2eg a2eg | a2ea (fe)dc | dfBf dfBd | dfBf gfec |
a2eg a2eg | a2ea (fedc) | (de)fg (af)ed | cdBc A2 || (ued) |
ceAe ceAe | ceAe fedc | dfBf dfBf | dfBf gfed |
ceAe ceAe | c(eag) fedc | agfe dcBA | E2G2 "_Fine."A2 |]

%%sep 2 1 500

